X:1
T:6 Lieder, Op.4
T:Morgenfreude
T:6 Lieder, Op.4
T:2. Morgenfreude 
T:Emilie Zumsteeg
T:Theodor Körner
T:                                  2. Und durch die bunt lebend’ge Menge Der Strasse fliegt der kühne Sinn, Ich weiss nicht, dass ich im Gedränge, Weiss nur dass ich dir näher bin. Wie ich dann immer froh erschrecke, Wie sich das scheue Herz bewegt, Wenn um die vielgeliebte Ecke    Erwartungsvoll der Schritt mich trägt. 
T:                               3. Dann häng’ ich mit verklärten Blicken Am lieben Fenster unverwandt. Ein stilles, heiliges Entzücken Führt mich in meiner Träume Land. Bis ich’s in schöner Wahrheit sehe, Bis sich der Traum in’s Leben wagt, Und Himmels Klarheit aus der Höhe  Von deinen Augen niedertagt.  
T:Theodor Körner
T:Creative Commons copyright waiver (CC0 1.0 Universal)
T:Creative Commons copyright waiver (CC0 1.0 Universal)
C:Emilie Zumsteeg
Z:Theodor Körner
Z:Creative Commons copyright waiver (CC0 1.0 Universal)
%%score 1 { 2 | 3 }
L:1/8
Q:1/4=108
M:3/4
K:C
V:1 treble nm="Singstimme\nVoice"
V:2 treble nm="Pianoforte"
V:3 bass 
V:1
"^Alla Polacca" z2 z |: %1
w: |
"^NOTE:  TRANSCRIBER and REVIEWER\nThe full text of the lyrics is available on Lieder.net:\nhttps://www.lieder.net/lieder/get_text.html?TextId=31750\n" G A B | %2
w: 1. Ich bin er-|
 c3 (e/d/) (c/B/) (A/G/) | !wedge!G !wedge!c z c d e | ((d g) (g/^f/)) (e/d/) (d/c/) (B/A/) | %5
w: wacht! Im * Ro- * sen- *|schi- mer strahlt mir der|jun- * * * ge * Früh- * ling- *|
 G2 z2 z G | !>!^G E !>!B E !>!e d | (c/B/A/G/) d z z c | (B !>!d2) (e/d/) A (e/d/) | %9
w: stag. Es|treibt mich aus dem en- gen|Zim- * * * mer, mich|ruft _ der * Sehn- sucht *|
 G (B/A/) G z[Q:1/4=100] z"^etwas gezongen" G | !>!A G !>!c B !>!e d | (c/B/d/c/) B z z G | %12
w: Glo- cken- * schlag. noch|freut mich nicht der Son- ne|Pran- * * * gen, die|
 !>!_A G !>!c B !>!d c | B z z2 z"^voriges zeitmaas."[Q:1/4=108] G | c c c (d/c/) (=B/c/) (d/c/) | %15
w: glü- hend durch die Wol- ken|bricht, für|mich ist sie nicht * auf- * ge- *|
 !wedge!c !wedge!f !fermata!z (e/d/) (=B/d/) (c/A/) | G3 (=A/G/) D (A/G/) | E E!<(! e4- | %18
w: gan- gen, denn * mei- * ne *|Son- ne * ist es *|nicht, denn mei-|
 e!<)! (d/c/) (B/d/) (c/A/) (G/D/) (A/G/) | C3 z z2 | z6 | z6 | z2 z :| %23
w: * ne * Son- * ne * ist * es *|nicht.||||
V:2
 [G,CE]"_staccato".[G,CE]/.[G,CE]/ .[G,CE] |: .[G,CE].[G,DF].[G,DF] | %2
 [G,CE].[G,CE]/.[G,CE]/ .[G,CE].[G,CE] .[G,DF].[G,DF] | %3
 [G,CE].[G,CE]/.[G,CE]/ .[G,CE].[G,CE] .[A,CE].[A,CE] | %4
 [B,DG].[B,DG]/.[B,DG]/ .[B,DG].[B,DG] .[CD^F].[CDF] | %5
 [B,DG].[B,DG]/.[B,DG]/ .[B,DG].[B,DG] .[B,DG].[B,DG] | %6
 .[B,D^G].[B,DG] .[B,DG].[B,DG] .[B,DG].[B,DG] | .[CA].[CEA] .[CDA].[CDA] .[CDA].[CDA] | %8
 [B,D=G].[B,DG]/.[B,DG]/ .[B,DG].[B,DG] .[CDA].[CDA] | .[B,DG].[D^F].[DG] [d^fb]/a/[Bdg] z | %10
 !>![B,D].G, !>![D=F].G, !>![FA].G, | .[EG].G, .[DF].G, .[CE].G, | %12
 !>![B,D].G, !>![DF].G, !>![F_A].G, | .[DF].G, .[B,D].G, .[DF].G, | %14
 .[G,CE].[A,C=F] .[_B,CG].[A,CF] .[G,CE].[B,CG] | %15
 !wedge![A,CF]!wedge![A,CD] !fermata!z [A,D][A,C_E][A,CE] | .[C=E].G,.[CE].G, [B,=F]G, | %17
 [G,CE][^G,DE] [A,CE][B,DE] [CE][CE] |!f! [CE]4 [CD][B,=F] | %19
 [CE].[G,CE]/.[G,CE]/.[G,CE] [Gg][Aa][Bb] | !wedge![cc'] !>![ee']2 (d'/c'/) (b/d'/)(c'/a/) | %21
{/a} !wedge!g!>!g z/ (g/{/b}!>!a/g/ !wedge!d/)g/ (3(!>!b/a/g/) | !wedge!c z!f! [cegc'] :| %23
V:3
 [C,,C,].C,.C, |: .C,.C,.C, | C,.C, .C,.C, .C,.C, | [C,,C,].C, .C,.C, .A,,.A,, | %4
 D,.D,.D,.D, .D,,.D,, | G,,.G,, .G,.G, .=F,.F, | .E,.E, .E,.E, .E,.E, | .A,.A, .^F,.D,.F,.D, | %8
 G,.D,.G,.D, .^F,.D, | .G,.[C,C].[G,B,][I:staff -1] [Dc]G[I:staff +1] z | G,,6 | G,,6 | G,,6 | %13
 G,,6 | .C,.C, .C,.C, .C,.C, | !wedge!F,,!wedge!F, !fermata!z F,^F,F, | G, z z2 G,,2 | %17
!<(! C,B,, A,,^G,,A,,=G,,!<)! |!f! ^F,,4 G,,G,, | [C,,C,].C,.C, [C,E,G,C][C,F,G,B,][C,F,G,B,] | %20
 .[C,E,G,C].[C,E,G,C].[C,E,G,C].[C,E,G,C] !>![F,A,CD]!>![^F,A,C^D] | %21
 [G,CE].[G,CE]/.[G,CE]/!wedge![G,CE](!>![G,CE] [G,B,F])(!>![G,B,F] | !wedge![CE]) z [C,C] :| %23

